build/img/case/button.svg

<svg width="125" height="125" viewBox="0 0 125 125" fill="none" xmlns="http://www.w3.org/2000/svg">
<circle cx="62.5" cy="62.5" r="62.5" transform="rotate(-90 62.5 62.5)" fill="#E9CF49"/>
<path d="M66.5475 24.8927L72.8399 12.9295L71.193 12.7126L66.0496 22.8857L65.9973 22.8788L63.6643 11.7206L62.0174 11.5036L64.9965 24.6884L66.5475 24.8927Z" fill="#1F1F1F"/>
<path d="M73.4753 26.5645L77.4812 14.5312L75.9801 14.0315L71.9743 26.0648L73.4753 26.5645Z" fill="#1F1F1F"/>
<path d="M83.3494 29.6604L77.8104 26.7108L79.8594 22.863L85.1114 25.6597L85.7724 24.4185L80.5204 21.6217L82.4331 18.0299L87.9721 20.9795L88.6413 19.7227L81.7059 16.0296L75.7448 27.2239L82.6802 30.9171L83.3494 29.6604Z" fill="#1F1F1F"/>
<path d="M95.2528 28.5734L95.3149 28.6355L90.2685 37.821L91.325 38.8775L102.735 32.352L101.567 31.1836L92.4499 36.7086L92.4002 36.6588L97.7014 27.318L96.5703 26.1869L87.2295 31.4881L87.1797 31.4384L92.7047 22.3213L91.5363 21.1529L85.0108 32.5633L86.0673 33.6198L95.2528 28.5734Z" fill="#1F1F1F"/>
</svg>

<svg width="125" height="125" fill="none" xmlns="http://www.w3.org/2000/svg"><circle cx="62.5" cy="62.5" r="62.5" transform="rotate(-90 62.5 62.5)" fill="#E9CF49"/><path d="M66.547 24.893L72.84 12.93l-1.647-.217-5.143 10.173-.053-.007-2.333-11.158-1.647-.217 2.98 13.184 1.55.205zM73.475 26.564l4.006-12.033-1.5-.5-4.007 12.034 1.501.5zM83.35 29.66l-5.54-2.95 2.05-3.847 5.251 2.797.661-1.241-5.252-2.797 1.913-3.592 5.54 2.95.668-1.257-6.935-3.693-5.961 11.194 6.935 3.693.67-1.257zM95.253 28.573l.062.063-5.046 9.185 1.056 1.056 11.41-6.525-1.168-1.168-9.117 5.525-.05-.05 5.301-9.341-1.13-1.131-9.341 5.301-.05-.05 5.525-9.117-1.169-1.168-6.525 11.41 1.056 1.057 9.186-5.047z" fill="#1F1F1F"/></svg>
